icons/container.svg

<svg version="1.1" viewBox="0 0 32 32" xmlns="http://www.w3.org/2000/svg">
 <path d="m28.324 7.8147-11.678-5.6672c-0.40654-0.19665-0.8848-0.19665-1.2913 0l-11.678 5.6672c-0.42079 0.25624-0.67613 0.70415-0.676 1.1858v14c-2.555e-4 0.53064 0.30904 1.0158 0.79878 1.253l11.622 5.614c0.3647 0.17641 0.79374 0.17641 1.1584 0l11.622-5.614c0.48974-0.2372 0.79903-0.72237 0.79878-1.253v-14c1.28e-4 -0.48166-0.25521-0.92956-0.676-1.1858zm-14.324 18.185-8-4v-11l8 4zm2-13-8-4 8-4 8 4zm10 9-8 4v-11l8-4z" fill="#00b0ff" stroke-width="1.422"/>
</svg>

<svg xmlns="http://www.w3.org/2000/svg" viewBox="0 0 32 32"><path fill="#00b0ff" d="M28.324 7.815 16.646 2.147a1.487 1.487 0 0 0-1.291 0L3.677 7.816A1.39 1.39 0 0 0 3 9v14a1.4 1.4 0 0 0 .798 1.254l11.622 5.614c.365.176.794.176 1.159 0l11.622-5.614c.49-.238.799-.723.799-1.253V9c0-.482-.256-.93-.676-1.186zM14 26l-8-4V11l8 4zm2-13L8 9l8-4 8 4zm10 9-8 4V15l8-4z"/></svg>
